_includes/icons/medium.svg

<svg width="24" height="24" viewBox="0 0 15 15">
<path fill-rule="evenodd" clip-rule="evenodd" d="M0 1.5C0 0.671573 0.671573 0 1.5 0H13.5C14.3284 0 15 0.671573 15 1.5V13.5C15 14.3284 14.3284 15 13.5 15H1.5C0.671573 15 0 14.3284 0 13.5V1.5ZM4 5H3V4H4.5C4.6636 4 4.80885 4.07857 4.90006 4.20004L7.5001 7.66668L10.0934 4.20895C10.1841 4.08243 10.3324 4 10.5 4H12V5H11V10H12V11H9V10H10V6.00014L7.5001 9.33335L5 5.99988V10H6V11H3V10H4V5Z" />
</svg>

<svg width="24" height="24" viewBox="0 0 15 15">
  <path fill-rule="evenodd" d="M0 1.5A1.5 1.5 0 0 1 1.5 0h12A1.5 1.5 0 0 1 15 1.5v12a1.5 1.5 0 0 1-1.5 1.5h-12A1.5 1.5 0 0 1 0 13.5v-12ZM4 5H3V4h1.5a.5.5 0 0 1 .4.2l2.6 3.467 2.593-3.458A.5.5 0 0 1 10.5 4H12v1h-1v5h1v1H9v-1h1V6L7.5 9.333 5 6v4h1v1H3v-1h1V5Z" clip-rule="evenodd"/>
</svg>
